common/svg/rollout-icon.svg

<svg fill="none" height="20" viewBox="0 0 20 20" width="20" xmlns="http://www.w3.org/2000/svg"><g fill="#000"><path clip-rule="evenodd" d="m4.81357 1.40553c1.49286-1.114578 3.02693-.732542 4.03624-.19158.50339.2698.91495.59432 1.19679.8452.1426.12687.256.23856.3357.32067.04.04115.0717.07514.0946.1002l.0152.01667 7.8051 7.20889.0025.01141c1.0485 1.01471 1.7003 2.43681 1.7003 4.01111 0 3.0825-2.4989 5.5814-5.5814 5.5814v.0036h-13.420223l-.99837319-13.95349h3.39593619c-.02724-.12068-.05096-.24692-.06954-.37773-.15326-1.07914.0533-2.50581 1.48717-3.57635zm-.60852 5.81455 3.11586 5.24172 2.27815 4.0883.00197-.0019c.18992.3237.41157.6266.66057.9044h-7.40276l-.99837-10.23252zm4.9413 4.67162-.22788-.3833-3.36341-5.65826-.00113-.00181-.00515-.00889c-.00604-.01053-.01669-.0295-.03075-.05607-.02823-.05339-.06944-.13603-.11441-.24148-.09147-.21451-.19013-.50401-.23524-.82161-.08582-.6043.01324-1.26774.75823-1.82395.68598-.51216 1.37514-.40126 2.04432-.04259.33587.18001.62738.40698.83877.59513.10409.09265.18483.17237.23764.22678.02632.02711.04544.04767.05679.06008l.01105.01221.00097.00109.02037.02349 4.40628 4.37752.0694.0545c-2.0819.30129-3.79174 1.75162-4.46585 3.68716zm5.27225 5.5573c-2.055 0-3.7209-1.6659-3.7209-3.7209s1.6659-3.7209 3.7209-3.7209 3.7209 1.6659 3.7209 3.7209-1.6659 3.7209-3.7209 3.7209z" fill-rule="evenodd"/><circle r="1.74715" transform="matrix(-1 0 0 1 14.4656 13.868)"/></g></svg>

<svg width="20" height="20" viewBox="0 0 20 20" fill="none" xmlns="http://www.w3.org/2000/svg">
<path fill-rule="evenodd" clip-rule="evenodd" d="M4.81357 1.40553C6.30643 0.290952 7.8405 0.672988 8.84981 1.21395C9.3532 1.48375 9.76476 1.80827 10.0466 2.05915C10.1892 2.18602 10.3026 2.29771 10.3823 2.37982C10.4223 2.42097 10.454 2.45496 10.4769 2.48002L10.4921 2.49669L18.2972 9.70558L18.2997 9.71699C19.3482 10.7317 20 12.1538 20 13.7281C20 16.8106 17.5011 19.3095 14.4186 19.3095L14.4186 19.3131H0.998377L3.8147e-06 5.35961H3.39594C3.3687 5.23893 3.34498 5.11269 3.3264 4.98188C3.17314 3.90274 3.3797 2.47607 4.81357 1.40553ZM4.20505 7.22008L7.32091 12.4618L9.59906 16.5501L9.60103 16.5482C9.79095 16.8719 10.0126 17.1748 10.2616 17.4526H2.85884L1.86047 7.22008H4.20505ZM9.14635 11.8917L8.91847 11.5084L5.55506 5.85014L5.55393 5.84833L5.54878 5.83944C5.54274 5.82891 5.53209 5.80994 5.51803 5.78337C5.4898 5.72998 5.44859 5.64734 5.40362 5.54189C5.31215 5.32738 5.21349 5.03788 5.16838 4.72028C5.08256 4.11598 5.18162 3.45254 5.92661 2.89633C6.61259 2.38417 7.30175 2.49507 7.97093 2.85374C8.3068 3.03375 8.59831 3.26072 8.8097 3.44887C8.91379 3.54152 8.99453 3.62124 9.04734 3.67565C9.07366 3.70276 9.09278 3.72332 9.10413 3.73573L9.11518 3.74794L9.11615 3.74903L9.13652 3.77252L13.5428 8.15004L13.6122 8.20454C11.5303 8.50583 9.82046 9.95616 9.14635 11.8917ZM14.4186 17.449C12.3636 17.449 10.6977 15.7831 10.6977 13.7281C10.6977 11.6731 12.3636 10.0072 14.4186 10.0072C16.4736 10.0072 18.1395 11.6731 18.1395 13.7281C18.1395 15.7831 16.4736 17.449 14.4186 17.449Z" fill="black"/>
<circle r="1.74715" transform="matrix(-1 0 0 1 14.4656 13.868)" fill="black"/>
</svg>
